X:291
T:score89
L:1/8
Q:1/4=96
M:4/4
I:linebreak $
K:Cmin
 z4 z z/ (c'/ d'>e' | e'4) z z/ g/ g>g | a4 g z/(c'/ d'>e' | e'4) z z/ g/ g>g | =a8 |$ %5
 d' z !>!g2 z z/ g/ !>!a>g | (gc'/) z/ !>!f2 z z/ f/ !>!g>f | !>!=e6- e>_e | !>!e2 d2 z4 |] %9
